X:307
T:Schottische fran Havero
R:polka 32 schottische
M:2/2
L:1/8
Q:180
O:Swedish
S:Blowzabella
K:Dm
P:A
D2 DE FGFE|D2 A2 A4|d^cde f2 f2|efe^c A2 A2|!
D2 DE FGFE|D2 A2 A4|d^cde f2 f2|e2 e^c d4:|!
P:B
a2 a^g a2 a2|fgfe f2 f2|e2 e^c A2 A2|FGFE F2 D2|!
a2 a^g a2 a2|fgfe f2 f2|e2 e^c Acec|d2 d2 d4:|!

